static/fsci_logo.svg

<?xml version="1.0" encoding="UTF-8"?>
<svg width="173px" height="38px" viewBox="0 0 173 38" version="1.1" xmlns="http://www.w3.org/2000/svg" xmlns:xlink="http://www.w3.org/1999/xlink">
    <!-- Generator: Sketch 48.2 (47327) - http://www.bohemiancoding.com/sketch -->
    <title>FSCI_Logo</title>
    <desc>Created with Sketch.</desc>
    <defs>
        <polygon id="path-1" points="0.0175210242 0.175794276 27.0168353 0.175794276 27.0168353 37.5656599 0.0175210242 37.5656599"></polygon>
    </defs>
    <g id="Nav/Main" stroke="none" stroke-width="1" fill="none" fill-rule="evenodd" transform="translate(-110.000000, -10.000000)">
        <g id="FSCI_Logo" transform="translate(110.000000, 10.000000)">
            <polyline id="Fill-1" fill="#E15D5D" points="17.8495434 7.65814766 17.8495434 4.06166543 31.8076673 12.3073514 31.8076673 15.8425101 17.8495434 7.65814766"></polyline>
            <polyline id="Fill-2" fill="#EFB84E" points="31.8076673 37.5656599 31.8105875 17.4468519 28.500866 15.5061064 28.500282 37.5656599 31.8076673 37.5656599"></polyline>
            <g id="Group-7">
                <mask id="mask-2" fill="white">
                    <use xlink:href="#path-1"></use>
                </mask>
                <g id="Clip-4"></g>
                <polyline id="Fill-3" fill="#8BC369" mask="url(#mask-2)" points="17.8550917 37.5656599 27.0156672 37.5656599 27.0168353 14.6361876 17.8550917 9.26453356 17.8550917 37.5656599"></polyline>
                <polyline id="Fill-5" fill="#385C80" mask="url(#mask-2)" points="12.1940488 37.5656599 14.968503 37.5656599 14.968503 0.175794276 0 8.77044068 0.00759244382 11.7244854 12.1955089 4.84631529 12.1940488 37.5656599"></polyline>
                <polyline id="Fill-6" fill="#80C8C5" mask="url(#mask-2)" points="0 13.2788922 0.0140168194 37.5656599 6.17236481 37.5656599 6.17382489 12.9416125 7.65843968 12.9416125 7.65727161 37.5656599 10.709434 37.5656599 10.7106021 7.25078385 0 13.2788922"></polyline>
            </g>
            <path d="M40.1307379,4.06896585 L46.5010902,4.06896585 L46.5010902,5.43852591 L41.6346258,5.43852591 L41.6346258,7.77407844 L45.9509301,7.77407844 L45.9509301,9.14334648 L41.6346258,9.14334648 L41.6346258,12.6279862 L40.1307379,12.6279862 L40.1307379,4.06896585 Z M47.8119549,12.6279862 L47.8119549,4.06896585 L49.3158428,4.06896585 L49.3158428,12.6279862 L47.8119549,12.6279862 Z M51.0513002,4.06896585 L52.4450977,4.06896585 L57.0303497,9.98727581 L57.0303497,4.06896585 L58.5097082,4.06896585 L58.5097082,12.6279862 L57.2502386,12.6279862 L52.5306587,6.53913825 L52.5306587,12.6279862 L51.0513002,12.6279862 L51.0513002,4.06896585 Z M63.1297103,4.0082263 L64.5235078,4.0082263 L68.2893599,12.6279862 L66.700203,12.6279862 L65.8317442,10.5616734 L61.7846797,10.5616734 L60.9042482,12.6279862 L59.3635661,12.6279862 L63.1297103,4.0082263 Z M69.1435098,4.06896585 L70.5373073,4.06896585 L75.1225593,9.98727581 L75.1225593,4.06896585 L76.6019178,4.06896585 L76.6019178,12.6279862 L75.3424482,12.6279862 L70.6228683,6.53913825 L70.6228683,12.6279862 L69.1435098,12.6279862 L69.1435098,4.06896585 Z M77.6391624,8.37329746 L77.6391624,8.34876803 C77.6391624,5.91538979 79.4610569,3.92237328 82.0532925,3.92237328 C83.6307687,3.92237328 84.5844964,4.47282546 85.4036043,5.25513919 L84.4379039,6.36772423 C83.7531238,5.73200307 83.0192849,5.30419806 82.0413198,5.30419806 C80.40252,5.30419806 79.2166386,6.64893667 79.2166386,8.32453061 L79.2166386,8.34876803 C79.2166386,10.0234859 80.40252,11.393046 82.0413198,11.393046 C83.0925812,11.393046 83.7653885,10.965241 84.4986434,10.2804609 L85.4646359,11.2584261 C84.5722317,12.1879165 83.5939745,12.7748708 81.9922609,12.7748708 C79.4978511,12.7748708 77.6391624,10.8309131 77.6391624,8.37329746 Z M86.7188492,12.6279862 L86.7188492,4.06896585 L88.2227371,4.06896585 L88.2227371,12.6279862 L86.7188492,12.6279862 Z M89.9581945,4.06896585 L91.3517,4.06896585 L95.9372441,9.98727581 L95.9372441,4.06896585 L97.4168945,4.06896585 L97.4168945,12.6279862 L96.1574249,12.6279862 L91.437553,6.53913825 L91.437553,12.6279862 L89.9581945,12.6279862 L89.9581945,4.06896585 Z M98.4661119,8.37329746 L98.4661119,8.34876803 C98.4661119,5.95218394 100.300271,3.92237328 102.880242,3.92237328 C104.371865,3.92237328 105.289091,4.33820559 106.16923,5.08401719 L105.215794,6.22113166 C104.555252,5.6589988 103.907558,5.30419806 102.818918,5.30419806 C101.241734,5.30419806 100.043588,6.68573082 100.043588,8.32453061 L100.043588,8.34876803 C100.043588,10.1090469 101.20494,11.4053107 102.953538,11.4053107 C103.760381,11.4053107 104.49422,11.1486277 105.019851,10.7573248 L105.019851,9.15590321 L102.831475,9.15590321 L102.831475,7.8470827 L106.474972,7.8470827 L106.474972,11.4418128 C105.631335,12.163679 104.420924,12.7748708 102.904479,12.7748708 C100.226975,12.7748708 98.4661119,10.8677073 98.4661119,8.37329746 Z M39.5560483,23.8227526 L40.4610092,22.7469617 C41.280117,23.4556871 42.0992249,23.8595467 43.1630431,23.8595467 C44.0922414,23.8595467 44.6791957,23.4311577 44.6791957,22.7831718 L44.6791957,22.7589344 C44.6791957,22.1477427 44.3369517,21.8171793 42.7475028,21.4504059 C40.9253163,21.0106282 39.8985843,20.4724407 39.8985843,18.8949645 L39.8985843,18.8704351 C39.8985843,17.4030493 41.1212598,16.38829 42.8207991,16.38829 C44.068004,16.38829 45.0582339,16.7676202 45.9264006,17.4646649 L45.1195575,18.6014874 C44.3489244,18.0270898 43.5788754,17.7210559 42.7962697,17.7210559 C41.9158382,17.7210559 41.4024722,18.1736824 41.4024722,18.7358152 L41.4024722,18.7606367 C41.4024722,19.4205952 41.7937751,19.7146564 43.4319908,20.1053753 C45.2416206,20.546029 46.1830837,21.1937229 46.1830837,22.6123418 L46.1830837,22.6365792 C46.1830837,24.2382929 44.923614,25.1923126 43.126249,25.1923126 C41.8180125,25.1923126 40.5830723,24.7396862 39.5560483,23.8227526 Z M46.9887587,21.4381412 L46.9887587,16.5106451 L48.4926467,16.5106451 L48.4926467,21.3774016 C48.4926467,22.9665585 49.3120466,23.8227526 50.6567852,23.8227526 C51.9895511,23.8227526 52.808951,23.0153254 52.808951,21.4381412 L52.808951,16.5106451 L54.3128389,16.5106451 L54.3128389,21.3651369 C54.3128389,23.9202863 52.8702746,25.2042853 50.6325477,25.2042853 C48.4070857,25.2042853 46.9887587,23.9202863 46.9887587,21.4381412 Z M55.2402851,23.8227526 L56.144954,22.7469617 C56.9643539,23.4556871 57.7834618,23.8595467 58.8472799,23.8595467 C59.7764783,23.8595467 60.3631406,23.4311577 60.3631406,22.7831718 L60.3631406,22.7589344 C60.3631406,22.1477427 60.0211886,21.8171793 58.4317397,21.4504059 C56.6095531,21.0106282 55.5825291,20.4724407 55.5825291,18.8949645 L55.5825291,18.8704351 C55.5825291,17.4030493 56.8052046,16.38829 58.5050359,16.38829 C59.7522408,16.38829 60.7424707,16.7676202 61.6106375,17.4646649 L60.8037943,18.6014874 C60.0331613,18.0270898 59.2631123,17.7210559 58.4805065,17.7210559 C57.599783,17.7210559 57.086417,18.1736824 57.086417,18.7358152 L57.086417,18.7606367 C57.086417,19.4205952 57.4777199,19.7146564 59.1162277,20.1053753 C60.9258574,20.546029 61.8673205,21.1937229 61.8673205,22.6123418 L61.8673205,22.6365792 C61.8673205,24.2382929 60.6078509,25.1923126 58.8104858,25.1923126 C57.5022493,25.1923126 56.2670171,24.7396862 55.2402851,23.8227526 Z M65.1183465,17.9044426 L62.4037558,17.9044426 L62.4037558,16.5106451 L69.3487978,16.5106451 L69.3487978,17.9044426 L66.6344992,17.9044426 L66.6344992,25.0696655 L65.1183465,25.0696655 L65.1183465,17.9044426 Z M72.2701366,16.4496136 L73.663642,16.4496136 L77.4297862,25.0696655 L75.8403373,25.0696655 L74.9721705,23.0033527 L70.9248139,23.0033527 L70.0446745,25.0696655 L68.5039924,25.0696655 L72.2701366,16.4496136 Z M78.0882847,25.0696655 L78.0882847,16.5106451 L79.5921726,16.5106451 L79.5921726,25.0696655 L78.0882847,25.0696655 Z M81.3518675,16.5106451 L82.7456649,16.5106451 L87.330917,22.4289551 L87.330917,16.5106451 L88.8105675,16.5106451 L88.8105675,25.0696655 L87.5510978,25.0696655 L82.831518,18.9808175 L82.831518,25.0696655 L81.3518675,25.0696655 L81.3518675,16.5106451 Z M93.1861512,16.4496136 L94.5799487,16.4496136 L98.3460929,25.0696655 L96.7563519,25.0696655 L95.8881852,23.0033527 L91.8408286,23.0033527 L90.9606891,25.0696655 L89.4200071,25.0696655 L93.1861512,16.4496136 Z M99.1754213,16.5106451 L103.014862,16.5106451 C103.992827,16.5106451 104.763168,16.7798849 105.252297,17.2690135 C105.631043,17.6480516 105.826986,18.1126508 105.826986,18.6870484 L105.826986,18.7115778 C105.826986,19.7386018 105.240032,20.288762 104.604311,20.6190333 C105.606805,20.9615693 106.30385,21.5359669 106.30385,22.6973188 L106.30385,22.7221402 C106.30385,24.2505576 105.04438,25.0696655 103.136925,25.0696655 L99.1754213,25.0696655 L99.1754213,16.5106451 Z M107.453521,16.5106451 L108.957409,16.5106451 L108.957409,23.7001054 L113.4571,23.7001054 L113.4571,25.0696655 L107.453521,25.0696655 L107.453521,16.5106451 Z M114.599763,16.5106451 L120.945878,16.5106451 L120.945878,17.8556758 L116.103651,17.8556758 L116.103651,20.0811379 L120.395426,20.0811379 L120.395426,21.4261685 L116.103651,21.4261685 L116.103651,23.7249269 L121.006617,23.7249269 L121.006617,25.0696655 L114.599763,25.0696655 L114.599763,16.5106451 Z M39.7516997,33.2686287 L39.7516997,33.2440993 C39.7516997,30.8107211 41.5733022,28.8177046 44.1658297,28.8177046 C45.7430139,28.8177046 46.6967417,29.3681567 47.5161416,30.1504705 L46.5501491,31.2630555 C45.8650771,30.6273343 45.1315302,30.1995293 44.153565,30.1995293 C42.5150572,30.1995293 41.3288839,31.5442679 41.3288839,33.2192778 L41.3288839,33.2440993 C41.3288839,34.9188172 42.5150572,36.2883773 44.153565,36.2883773 C45.2048265,36.2883773 45.8776338,35.8605722 46.6111807,35.1757922 L47.5768811,36.1540494 C46.684769,37.0829557 45.7062198,37.670202 44.1045061,37.670202 C41.6100963,37.670202 39.7516997,35.7262444 39.7516997,33.2686287 Z M48.8310944,37.5236095 L48.8310944,28.9645891 L50.3349824,28.9645891 L50.3349824,37.5236095 L48.8310944,37.5236095 Z M54.2269859,30.3580946 L51.5126872,30.3580946 L51.5126872,28.9645891 L58.4577292,28.9645891 L58.4577292,30.3580946 L55.7434305,30.3580946 L55.7434305,37.5236095 L54.2269859,37.5236095 L54.2269859,30.3580946 Z M59.6547071,37.5236095 L59.6547071,28.9645891 L61.158303,28.9645891 L61.158303,37.5236095 L59.6547071,37.5236095 Z M62.7979789,28.9645891 L69.1440938,28.9645891 L69.1440938,30.3093277 L64.3018668,30.3093277 L64.3018668,32.5350819 L68.5936417,32.5350819 L68.5936417,33.8798205 L64.3018668,33.8798205 L64.3018668,36.1785788 L69.2051254,36.1785788 L69.2051254,37.5236095 L62.7979789,37.5236095 L62.7979789,28.9645891 Z M70.1743301,36.2764046 L71.079291,35.2006137 C71.8983989,35.9096311 72.7175067,36.3131987 73.7816169,36.3131987 C74.7105232,36.3131987 75.2974775,35.8848097 75.2974775,35.2368238 L75.2974775,35.2125864 C75.2974775,34.6013946 74.9552335,34.2708313 73.3657846,33.9040579 C71.5435981,33.4639882 70.5168661,32.9260927 70.5168661,31.3489085 L70.5168661,31.3240871 C70.5168661,29.8567013 71.7395416,28.841942 73.4390809,28.841942 C74.6862858,28.841942 75.6765157,29.2215642 76.5446825,29.9183169 L75.7378393,31.0551393 C74.9674983,30.4807418 74.1971572,30.1747079 73.4145515,30.1747079 C72.53412,30.1747079 72.020754,30.6273343 72.020754,31.1894672 L72.020754,31.2142886 C72.020754,31.8745392 72.4120569,32.1680164 74.0502726,32.5593193 C75.8599024,32.999681 76.8013655,33.6476669 76.8013655,35.0659938 L76.8013655,35.0902312 C76.8013655,36.6922369 75.5418958,37.6459646 73.7448228,37.6459646 C72.4362943,37.6459646 71.2013541,37.1933382 70.1743301,36.2764046 Z M81.7390821,37.5236095 L81.7390821,28.9645891 L83.242678,28.9645891 L83.242678,37.5236095 L81.7390821,37.5236095 Z M85.0026649,28.9645891 L86.3964623,28.9645891 L90.9817144,34.8826071 L90.9817144,28.9645891 L92.4613649,28.9645891 L92.4613649,37.5236095 L91.2018952,37.5236095 L86.4820233,31.4344695 L86.4820233,37.5236095 L85.0026649,37.5236095 L85.0026649,28.9645891 Z M94.1366668,37.5236095 L94.1366668,28.9645891 L95.6405547,28.9645891 L95.6405547,37.5236095 L94.1366668,37.5236095 Z M99.5325582,30.3580946 L96.8179675,30.3580946 L96.8179675,28.9645891 L103.76301,28.9645891 L103.76301,30.3580946 L101.048711,30.3580946 L101.048711,37.5236095 L99.5325582,37.5236095 L99.5325582,30.3580946 Z M104.959987,37.5236095 L104.959987,28.9645891 L106.463875,28.9645891 L106.463875,37.5236095 L104.959987,37.5236095 Z M111.097018,28.9035576 L112.490816,28.9035576 L116.25696,37.5236095 L114.667511,37.5236095 L113.799344,35.4570047 L109.751988,35.4570047 L108.871848,37.5236095 L107.331166,37.5236095 L111.097018,28.9035576 Z M117.612503,30.3580946 L114.897912,30.3580946 L114.897912,28.9645891 L121.842954,28.9645891 L121.842954,30.3580946 L119.128656,30.3580946 L119.128656,37.5236095 L117.612503,37.5236095 L117.612503,30.3580946 Z M122.795514,37.5236095 L122.795514,28.9645891 L124.299402,28.9645891 L124.299402,37.5236095 L122.795514,37.5236095 Z M125.166401,28.9645891 L126.829438,28.9645891 L129.409409,35.5428577 L131.977115,28.9645891 L133.603358,28.9645891 L130.04513,37.584349 L128.724629,37.584349 L125.166401,28.9645891 Z M134.703386,28.9645891 L141.049209,28.9645891 L141.049209,30.3093277 L136.207274,30.3093277 L136.207274,32.5350819 L140.499049,32.5350819 L140.499049,33.8798205 L136.207274,33.8798205 L136.207274,36.1785788 L141.110241,36.1785788 L141.110241,37.5236095 L134.703386,37.5236095 L134.703386,28.9645891 Z M65.2815841,9.22890748 L63.8022256,5.80559137 L62.3348398,9.22890748 L65.2815841,9.22890748 Z M74.4217184,21.6705868 L72.9423599,18.2472707 L71.4752661,21.6705868 L74.4217184,21.6705868 Z M95.338025,21.6705868 L93.8583745,18.2472707 L92.3912808,21.6705868 L95.338025,21.6705868 Z M103.148898,23.7368996 C104.176214,23.7368996 104.79967,23.333332 104.79967,22.5632829 L104.79967,22.5387535 C104.79967,21.8171793 104.224981,21.3893743 103.039099,21.3893743 L100.65478,21.3893743 L100.65478,23.7368996 L103.148898,23.7368996 Z M102.70912,20.11764 C103.67482,20.11764 104.322806,19.7386018 104.322806,18.9559961 L104.322806,18.9317587 C104.322806,18.2592434 103.784911,17.843411 102.81921,17.843411 L100.65478,17.843411 L100.65478,20.11764 L102.70912,20.11764 Z M113.248892,34.1242387 L111.769534,30.7009226 L110.302148,34.1242387 L113.248892,34.1242387 Z" id="Combined-Shape" fill="#15487C"></path>
            <g id="Group" transform="translate(145.000000, 29.000000)" fill="#15487C">
                <path d="M0,0 L28,0 L28,9 L0,9 L0,0 Z M5.627,7.5 C6.48500429,7.5 7.09099823,7.30500195 7.445,6.915 C7.7450015,6.57899832 7.895,6.19200219 7.895,5.754 C7.895,5.35799802 7.77950115,5.02650134 7.5485,4.7595 C7.31749884,4.49249867 7.00700195,4.31700042 6.617,4.233 C6.72500054,4.18499976 6.79999979,4.15050011 6.842,4.1295 C6.88400021,4.1084999 6.96199943,4.05600042 7.076,3.972 C7.38800156,3.7319988 7.544,3.36600246 7.544,2.874 C7.544,2.46599796 7.40000144,2.10000162 7.112,1.776 C6.96199925,1.60199913 6.73250154,1.46400051 6.4235,1.362 C6.11449845,1.25999949 5.74700213,1.209 5.321,1.209 L2.873,1.209 L2.873,7.5 L5.627,7.5 Z M3.935,3.819 L3.935,2.19 L5.294,2.19 C5.68400195,2.19 5.97199907,2.25599934 6.158,2.388 C6.34400093,2.52000066 6.437,2.7359985 6.437,3.036 C6.437,3.55800261 6.05300384,3.819 5.285,3.819 L3.935,3.819 Z M3.935,6.519 L3.935,4.8 L5.465,4.8 C6.35900447,4.8 6.806,5.07899721 6.806,5.637 C6.806,5.97900171 6.70250104,6.21149939 6.4955,6.3345 C6.28849897,6.45750062 5.99000195,6.519 5.6,6.519 L3.935,6.519 Z M13.646,1.209 L9.227,1.209 L9.227,7.5 L13.754,7.5 L13.754,6.501 L10.289,6.501 L10.289,4.818 L13.304,4.818 L13.304,3.873 L10.289,3.873 L10.289,2.208 L13.646,2.208 L13.646,1.209 Z M17.489,2.181 L19.397,2.181 L19.397,1.209 L14.519,1.209 L14.519,2.181 L16.427,2.181 L16.427,7.5 L17.489,7.5 L17.489,2.181 Z M21.44,6.069 L24.59,6.069 L25.22,7.5 L26.354,7.5 L23.582,1.209 L22.448,1.209 L19.676,7.5 L20.81,7.5 L21.44,6.069 Z M24.158,5.088 L21.872,5.088 L23.015,2.496 L24.158,5.088 Z" id="Combined-Shape"></path>
            </g>
        </g>
    </g>
</svg>

<svg width="142" height="38" viewBox="0 0 142 38" xmlns="http://www.w3.org/2000/svg" xmlns:xlink="http://www.w3.org/1999/xlink"><title>FSCI_Logo</title><defs><path id="a" d="M.018.176h26.999v37.39h-27z"/></defs><g fill="none" fill-rule="evenodd"><path fill="#E15D5D" d="M17.85 7.658V4.062l13.958 8.245v3.536L17.85 7.658"/><path fill="#EFB84E" d="M31.808 37.566l.003-20.12-3.31-1.94v22.06h3.307"/><g><mask id="b" fill="#fff"><use xlink:href="#a"/></mask><path fill="#8BC369" mask="url(#b)" d="M17.855 37.566h9.16l.002-22.93-9.162-5.371v28.3"/><path fill="#385C80" mask="url(#b)" d="M12.194 37.566h2.775V.176L0 8.77l.008 2.954 12.188-6.878-.002 32.72"/><path fill="#80C8C5" mask="url(#b)" d="M0 13.279l.014 24.287h6.158l.002-24.624h1.484v24.624h3.051l.002-30.315L0 13.279"/></g><path d="M40.13 4.069h6.371v1.37h-4.866v2.335h4.316v1.37h-4.316v3.484H40.13V4.069zm7.682 8.559V4.069h1.504v8.559h-1.504zm3.24-8.559h1.393l4.585 5.918V4.07h1.48v8.559h-1.26l-4.72-6.089v6.089h-1.479V4.069zm12.078-.06h1.394l3.765 8.619H66.7l-.868-2.066h-4.047l-.88 2.066h-1.541l3.766-8.62zm6.014.06h1.393l4.586 5.918V4.07h1.479v8.559h-1.26l-4.72-6.089v6.089h-1.478V4.069zm8.495 4.304V8.35c0-2.434 1.822-4.427 4.414-4.427 1.578 0 2.531.55 3.35 1.333l-.965 1.113c-.685-.636-1.419-1.064-2.397-1.064-1.638 0-2.824 1.345-2.824 3.02v.025c0 1.674 1.186 3.044 2.824 3.044 1.052 0 1.724-.428 2.458-1.113l.966.978c-.893.93-1.871 1.517-3.473 1.517-2.494 0-4.353-1.944-4.353-4.402zm9.08 4.255V4.069h1.504v8.559h-1.504zm3.24-8.559h1.393l4.585 5.918V4.07h1.48v8.559h-1.26l-4.72-6.089v6.089h-1.479V4.069zm8.507 4.304V8.35c0-2.397 1.834-4.427 4.414-4.427 1.492 0 2.41.416 3.29 1.162l-.954 1.137c-.66-.562-1.308-.917-2.397-.917-1.577 0-2.775 1.382-2.775 3.02v.025c0 1.76 1.16 3.056 2.91 3.056.806 0 1.54-.256 2.066-.648V9.156h-2.189V7.847h3.644v3.595a5.455 5.455 0 0 1-3.57 1.333c-2.678 0-4.439-1.907-4.439-4.402zm-58.91 15.45l.905-1.076c.82.709 1.638 1.113 2.702 1.113.93 0 1.516-.429 1.516-1.077v-.024c0-.611-.342-.942-1.931-1.309-1.823-.44-2.85-.978-2.85-2.555v-.025c0-1.467 1.223-2.482 2.923-2.482 1.247 0 2.237.38 3.105 1.077L45.12 18.6c-.771-.574-1.541-.88-2.324-.88-.88 0-1.394.453-1.394 1.015v.025c0 .66.392.954 2.03 1.344 1.81.441 2.751 1.089 2.751 2.507v.025c0 1.601-1.26 2.555-3.057 2.555a5.273 5.273 0 0 1-3.57-1.37zm7.433-2.385v-4.927h1.504v4.866c0 1.59.819 2.446 2.164 2.446 1.333 0 2.152-.808 2.152-2.385v-4.927h1.504v4.854c0 2.555-1.443 3.84-3.68 3.84-2.226 0-3.644-1.285-3.644-3.767zm8.251 2.385l.905-1.076c.82.709 1.638 1.113 2.702 1.113.93 0 1.516-.429 1.516-1.077v-.024c0-.611-.342-.942-1.931-1.309-1.822-.44-2.85-.978-2.85-2.555v-.025c0-1.467 1.223-2.482 2.923-2.482 1.247 0 2.237.38 3.106 1.077l-.807 1.136c-.77-.574-1.54-.88-2.323-.88-.881 0-1.395.453-1.395 1.015v.025c0 .66.392.954 2.03 1.344 1.81.441 2.751 1.089 2.751 2.507v.025c0 1.601-1.26 2.555-3.057 2.555a5.272 5.272 0 0 1-3.57-1.37zm9.878-5.919h-2.714v-1.393h6.945v1.393h-2.715v7.166h-1.516v-7.166zm7.152-1.454h1.394l3.766 8.62h-1.59l-.868-2.067h-4.047l-.88 2.067h-1.541l3.766-8.62zm5.818 8.62v-8.56h1.504v8.56h-1.504zm3.264-8.56h1.394l4.585 5.919v-5.918h1.48v8.559h-1.26l-4.72-6.09v6.09h-1.48v-8.56zm11.834-.06h1.394l3.766 8.62h-1.59l-.868-2.067h-4.047l-.88 2.067H89.42l3.766-8.62zm5.99.06h3.839c.978 0 1.748.27 2.237.759.379.38.575.844.575 1.418v.025c0 1.027-.587 1.577-1.223 1.907 1.003.343 1.7.917 1.7 2.078v.025c0 1.529-1.26 2.348-3.167 2.348h-3.962v-8.56zm8.278 0h1.503v7.19h4.5v1.37h-6.003v-8.56zm7.146 0h6.346v1.346h-4.842v2.225h4.291v1.345h-4.291v2.299h4.903v1.345H114.6v-8.56zM39.752 33.27v-.025c0-2.433 1.821-4.426 4.414-4.426 1.577 0 2.53.55 3.35 1.332l-.966 1.113c-.685-.636-1.418-1.063-2.396-1.063-1.639 0-2.825 1.344-2.825 3.02v.024c0 1.675 1.186 3.044 2.825 3.044 1.05 0 1.724-.427 2.457-1.112l.966.978c-.892.929-1.87 1.516-3.472 1.516-2.495 0-4.353-1.944-4.353-4.401zm9.08 4.255v-8.56h1.503v8.56h-1.504zm5.395-7.166h-2.714v-1.393h6.945v1.393h-2.715v7.166h-1.516v-7.166zm5.428 7.166v-8.56h1.503v8.56h-1.503zm3.143-8.56h6.346v1.345h-4.842v2.226h4.292v1.345h-4.292v2.299h4.903v1.345h-6.407v-8.56zm7.376 7.312l.905-1.075c.82.709 1.639 1.112 2.703 1.112.929 0 1.515-.428 1.515-1.076v-.024c0-.612-.342-.942-1.931-1.309-1.822-.44-2.85-.978-2.85-2.555v-.025c0-1.467 1.224-2.482 2.923-2.482 1.247 0 2.238.38 3.106 1.076l-.807 1.137c-.77-.574-1.54-.88-2.323-.88-.88 0-1.394.452-1.394 1.014v.025c0 .66.391.954 2.03 1.345 1.809.44 2.75 1.089 2.75 2.507v.024c0 1.602-1.26 2.556-3.056 2.556a5.273 5.273 0 0 1-3.57-1.37zm11.565 1.248v-8.56h1.504v8.56h-1.504zm3.264-8.56h1.393l4.586 5.919v-5.918h1.48v8.559h-1.26l-4.72-6.09v6.09h-1.48v-8.56zm9.134 8.56v-8.56h1.504v8.56h-1.504zm5.396-7.166h-2.715v-1.393h6.945v1.393h-2.714v7.166h-1.516v-7.166zm5.427 7.166v-8.56h1.504v8.56h-1.504zm6.137-8.62h1.394l3.766 8.62h-1.59l-.868-2.067h-4.047l-.88 2.067h-1.54l3.765-8.62zm6.516 1.454h-2.715v-1.393h6.945v1.393h-2.714v7.166h-1.516v-7.166zm5.183 7.166v-8.56h1.503v8.56h-1.503zm2.37-8.56h1.663l2.58 6.579 2.568-6.578h1.626l-3.558 8.62h-1.32l-3.559-8.62zm9.537 0h6.346v1.345h-4.842v2.226h4.292v1.345h-4.292v2.299h4.903v1.345h-6.407v-8.56zM65.282 9.23l-1.48-3.423-1.467 3.423h2.947zm9.14 12.442l-1.48-3.424-1.467 3.424h2.947zm20.916 0l-1.48-3.424-1.467 3.424h2.947zm7.81 2.066c1.028 0 1.652-.404 1.652-1.174v-.024c0-.722-.575-1.15-1.76-1.15h-2.385v2.348h2.494zm-.439-3.62c.966 0 1.614-.378 1.614-1.161v-.024c0-.673-.538-1.089-1.504-1.089h-2.164v2.275h2.054zm10.54 14.007l-1.48-3.423-1.467 3.423h2.947z" fill="#15487C"/></g></svg>
